build/img/icon-news.svg

<svg width="32" height="32" viewBox="0 0 32 32" fill="none" xmlns="http://www.w3.org/2000/svg">
<path d="M3.06942 18.0713H1.00052V27.3926C0.992942 27.8027 1.06803 28.2101 1.22131 28.5905C1.37458 28.9709 1.60289 29.3164 1.89259 29.6065C2.18228 29.8965 2.52742 30.1251 2.90736 30.2786C3.2873 30.432 3.69424 30.5072 4.10386 30.4996" stroke="#2374E7" stroke-width="2" stroke-miterlimit="10" stroke-linecap="square"/>
<path d="M7.20734 1.5V27.3924C7.21492 27.8025 7.13983 28.2099 6.98656 28.5903C6.83328 28.9707 6.60498 29.3163 6.31528 29.6063C6.02558 29.8964 5.68045 30.125 5.30051 30.2784C4.92057 30.4319 4.51363 30.5071 4.104 30.4995H27.8963C28.3059 30.5071 28.7128 30.4319 29.0928 30.2784C29.4727 30.125 29.8179 29.8964 30.1076 29.6063C30.3973 29.3163 30.6256 28.9707 30.7788 28.5903C30.9321 28.2099 31.0072 27.8025 30.9996 27.3924V1.5H7.20734Z" stroke="#2374E7" stroke-width="2" stroke-miterlimit="10" stroke-linecap="square"/>
<path d="M26 6.5H12V13.5H26V6.5Z" stroke="#2374E7" stroke-width="2" stroke-miterlimit="10" stroke-linecap="square"/>
<path d="M26 24.5H12" stroke="#2374E7" stroke-width="2" stroke-miterlimit="10" stroke-linecap="square"/>
<path d="M26 19.5H12" stroke="#2374E7" stroke-width="2" stroke-miterlimit="10" stroke-linecap="square"/>
</svg>

<svg width="32" height="32" fill="none" xmlns="http://www.w3.org/2000/svg"><path d="M3.07 18.071H1v9.322a3.054 3.054 0 001.907 2.886c.38.153.787.228 1.197.22M7.207 1.5v25.892a3.054 3.054 0 01-1.906 2.886 3.03 3.03 0 01-1.197.222h23.792a3.044 3.044 0 002.883-1.91 3.05 3.05 0 00.22-1.198V1.5H7.208z" stroke="#2374E7" stroke-width="2" stroke-miterlimit="10" stroke-linecap="square"/><path d="M26 6.5H12v7h14v-7zm0 18H12m14-5H12" stroke="#2374E7" stroke-width="2" stroke-miterlimit="10" stroke-linecap="square"/></svg>
